img/icon/discount-white.svg

<svg width="16" height="16" viewBox="0 0 16 16" fill="none" xmlns="http://www.w3.org/2000/svg">
<path d="M5.90021 10.0998L10.0998 5.90021M5.76442 13.3965H4.13009C3.28737 13.3965 2.60354 12.7133 2.60354 11.8699V10.8676C2.60354 10.4631 2.44256 10.0746 2.15628 9.78832L1.44726 9.07929C0.850915 8.48295 0.850915 7.51705 1.44726 6.92071L2.15628 6.21168C2.44256 5.92541 2.60354 5.53765 2.60354 5.13239V4.13009C2.60354 3.28737 3.28667 2.60354 4.13009 2.60354H5.13239C5.53695 2.60354 5.92541 2.44256 6.21168 2.15628L6.92071 1.44726C7.51705 0.850915 8.48295 0.850915 9.07929 1.44726L9.78832 2.15628C10.0746 2.44256 10.4631 2.60354 10.8676 2.60354H11.8699C12.7126 2.60354 13.3965 3.28667 13.3965 4.13009V5.13239C13.3965 5.53695 13.5574 5.92541 13.8437 6.21168L14.5527 6.92071C15.1491 7.51705 15.1491 8.48295 14.5527 9.07929L13.8437 9.78832C13.5574 10.0746 13.3965 10.4631 13.3965 10.8676V11.8699C13.3965 12.7126 12.7133 13.3965 11.8699 13.3965H10.8676C10.4631 13.3965 10.0746 13.5574 9.78832 13.8437L9.07929 14.5527C8.48295 15.1491 7.51705 15.1491 6.92071 14.5527L5.76442 13.3965ZM6.07449 5.90021C5.9779 5.90021 5.89951 5.9786 5.90021 6.07519C5.90021 6.17178 5.9786 6.25018 6.07519 6.25018C6.17178 6.25018 6.25018 6.17178 6.25018 6.07519C6.25018 5.9786 6.17178 5.90021 6.07449 5.90021ZM9.92411 9.74983C9.82752 9.74983 9.74913 9.82822 9.74983 9.92481C9.74983 10.0214 9.82822 10.0998 9.92481 10.0998C10.0214 10.0998 10.0998 10.0214 10.0998 9.92481C10.0998 9.82822 10.0214 9.74983 9.92411 9.74983Z" stroke="white" stroke-width="1.5" stroke-linecap="round" stroke-linejoin="round"/>
</svg>

<svg width="16" height="16" fill="none" xmlns="http://www.w3.org/2000/svg"><path d="M5.9 10.1l4.2-4.2m-4.336 7.496H4.13a1.527 1.527 0 0 1-1.526-1.526v-1.002c0-.405-.161-.793-.448-1.08l-.709-.709a1.526 1.526 0 0 1 0-2.158l.71-.71c.286-.286.447-.673.447-1.079V4.13c0-.843.683-1.526 1.526-1.526h1.002c.405 0 .793-.161 1.08-.448l.709-.709a1.526 1.526 0 0 1 2.158 0l.71.71c.286.286.674.447 1.079.447h1.002c.843 0 1.527.683 1.527 1.526v1.002c0 .405.16.793.447 1.08l.709.709a1.526 1.526 0 0 1 0 2.158l-.71.71a1.527 1.527 0 0 0-.447 1.079v1.002c0 .843-.683 1.527-1.526 1.527h-1.002c-.405 0-.793.16-1.08.447l-.709.709a1.526 1.526 0 0 1-2.158 0l-1.157-1.157zm.31-7.496a.175.175 0 1 0 .176.175.175.175 0 0 0-.176-.175zm3.85 3.85a.175.175 0 1 0 .176.175.175.175 0 0 0-.176-.175z" stroke="#fff" stroke-width="1.5" stroke-linecap="round" stroke-linejoin="round"/></svg>
